icons/bhi_pin.svg

<svg xmlns="http://www.w3.org/2000/svg" viewBox="0 0 512 512" enable-background="new 0 0 512 512"><path fill="#010101" d="M364 259.7v-207.8h26v-51.9h-268v51.9h26v207.8l-52 52v40.3h135.1v160h51.3v-160h133.6v-40.3l-52-52z"/></svg>

<?xml version="1.0" encoding="utf-8"?>
<!-- Generator: Adobe Illustrator 19.2.0, SVG Export Plug-In . SVG Version: 6.00 Build 0)  -->
<svg version="1.1" id="Layer_1" xmlns="http://www.w3.org/2000/svg" xmlns:xlink="http://www.w3.org/1999/xlink" x="0px" y="0px"
	 viewBox="0 0 512 512" enable-background="new 0 0 512 512" xml:space="preserve">
<g id="keep_1_">
	<path fill="#010101" d="M364,259.7V51.9h26V0H122v51.9h26v207.8L96,311.7V352h135.1v160h51.3V352H416v-40.3L364,259.7z"/>
</g>
</svg>
